X:5
T:Polska
R:Vals
O:Östergötland
B:Ög 10
C:A. P. Fyr
S:Gustav Andersson
N:Smus Ög 10 bild 6
M:3/4
L:1/8
K:G
gb dg Bd | dg Bd Gg | f2 g/2f/2e/2f/2 de/2f/2 | gg (e/2g/2)e/2c/2 de/2f/2 |
gb dg Bd | dg Bd Gg | f2 (g/2f/2)e/2f/2 de/2f/2 | g2 G4 :|:
BA G2 Bd | dB ce/2c/2 Ac | (cB) (Bd) (fa) | af gb/2g/2 d2 |
dB G2 Bd | dB ce/2c/2 A2 | f2 (g/2f/2)e/2f/2 de/2f/2 | g2 G4 :|

